source/presentation/public/images/icons/types/dragon.svg

<svg width="1em" height="1em" viewBox="0 0 35 35" fill="none" xmlns="http://www.w3.org/2000/svg">
<circle cx="17.5" cy="17.5" r="17.5" fill="#996E00"/>
<path fill-rule="evenodd" clip-rule="evenodd" d="M27.7057 25.8015C24.4696 30.1076 17.174 30.0871 11.4106 25.7557C5.64723 21.4243 3.59851 14.4223 6.83467 10.1162C10.0283 5.86672 17.1754 5.83086 22.9018 9.9935C17.5347 8.12099 12.4342 8.88673 11.0355 11.9681C9.71925 14.8677 12.1045 18.885 16.5091 21.6882L14.5302 12.6882L28.4554 24.5706C28.248 25.0003 27.9985 25.412 27.7057 25.8015ZM21.5802 22.4382L18.5802 19.7382L19.0302 21.9882L21.5802 22.4382Z" fill="black"/>
</svg>

<svg width="1em" height="1em" viewBox="0 0 35 35" xmlns="http://www.w3.org/2000/svg">
<circle cx="17.5" cy="17.5" r="17.5" fill="#996E00"/>
<path d="m27.706 25.802c-3.2361 4.3061-10.532 4.2856-16.295-0.0458-5.7634-4.3314-7.8121-11.333-4.5759-15.64 3.1936-4.2495 10.341-4.2853 16.067-0.1227-5.3671-1.8725-10.468-1.1068-11.866 1.9746-1.3162 2.8996 1.069 6.9169 5.4736 9.7201l-1.9789-9 13.925 11.882c-0.2074 0.4297-0.4569 0.8414-0.7497 1.2309zm-6.1255-3.3633-3-2.7 0.45 2.25 2.55 0.45z" clip-rule="evenodd" fill-rule="evenodd"/>
</svg>
